X:1
T:- # -
%%score [ 1 2 3 4 ]
L:1/8
M:4/4
K:C
V:1 treble nm="Sopran" snm=" "
V:2 treble nm="Alt"
V:3 treble-8 nm="Tenor"
V:4 bass nm="Baß"
V:1
"^Christobal de Morales" G8 | E4 C4 | G4 GFED |"^XVII.  In illo tempore dixit Iesus" E2 E2 D4- | %4
w: ~In|il- lo|tem- * * * *|* po- re|
"^5" D4 z4 |"^1546" z8 | z8 | G8 | G4 G4- |"^10" G4 A4- | A4 A4 | c6 B2 | A4 G4 | c8 |"^15" B8- | %15
w: |||di-|xit Ie-|* sus|* dis-|ci- pu-|lis *|su-|is:|
 B8 | z8 | z8 | z4 z2 G2- |"^20" G2 G2 G2 G2 | c4 B2 G2 | A4 F4 | E4 E4- | E4 E4 |"^25" E4 G4- | %25
w: |||No-|* li- te ti-|me- re pu-|sil- lus|grex, qui-|* a|com- pla-|
 G2 G2 G4 | G8 | G4 A4- | A4 G4- |"^30" G4 z2 c2- | c2 c2 B4 | A2 d3 c c2- | c2 B2 c4- | %33
w: * cu- it|pa-|tri ve-|* stro|* da-|* re vo-|\-bis reg * *|* * num,|
 c4 z2 c2- |"^35" c2 c2 c2 A2 | B2 c2 A4 | G4 c3 B | AG A3 G G2- | G^F/E/ F2 G4- |"^40" G8 | z8 | %41
w: * ven-|* di- te, quae|pos- si- de-|||* * * * tis|||
 z8 | z4 z2 G2 | c6 c2 |"^45" c4 B2 A2- | AGFE F2 F2 | E2 G4 FE | FE E4 D2 | E8- |"^50" E8 | %50
w: |et|da- te|e- le- mo-|* * * * * sy-|nam, e- le *|\-mo * * sy-|~~nam.||
 z2 E3 E E2 | D2 C2 E3 F | G8 | E3 F G2 A2- |"^55" AB c4 A2 | A2 c4 B2 | A2 GF E2 DE | %57
w: Fa- ci- te|vo- bis sa- cu-|\-los,|qui * * non|* * * ve-|te- res- *||
 FG A3 G G2- | G2 ^F2 G4- |"^60" G4 z4 | z8 | z8 | z8 | z4 z2 G2 |"^65" c4 c2 c2- | c2 c2 c2 c2 | %66
w: |* * ~cunt.|||||The-|sau- rus non|* de- fi- ci-|
 A4 c4 | B2 d3 c c2- | c2 B2 c4 |"^70" G4 G2 c2- | c2 B2 c2 c2 | G2 B4 B2 | B2 B2 c2 A2 | %73
w: et vo-|bis in * cae-|* * ~lis,|quem fur non|* ap- pro- pri-|at ne- que|ti- ne- a cor-|
 AGFE FE E2- |"^75" E2 D2 E4 | D4 G2 G2- | GG G2 E2 F2- | FE E4 D2 | E8 |"^80" E8 | E4 E4 | %81
w: rum- * * * * * *|* * ~pit,|ne- que ti-|* ne- a cor- rum-||~pit.|U-|bi e-|
 F4 G4- | G4 G4 | A4 B4 |"^85" c8 | B4 z2 G2- | G2 G2 A2 B2 | c4 B2 A2- | AGFE D2 A2- | %89
w: nim est|* the-|sau- rus|tu-|us, i~-|* bi et cor|tu- am e-||
"^90" AG G4 ^F2 | G8 | z8 | z2 G4 G2 | A2 B2 c4 |"^95" B2 A3 GFE | D2 G4 ^F2 | G4 z4 | z4 z2 G2- | %98
w: |~rit,||i- bi|et cor tu-|\-am e- * * *||~rit,|i-|
 G2 G2 A2 B2 |"^100" c4 B2 A2- | AGFE D2 A2- | AG G3 ^F FE/F/ | G8- | G8- | G8 |] %105
w: * bi et cor|tu- am e-|||rit.|||
V:2
 z8 | z8 | z8 | z8 | G8 | E4 C4 | F6 F2 | E8 | D6 D2 | E4 F4 | F4 E4 | A4 G3 F | E3 D C2 G2- | %13
w: ||||~In|il- lo|tem- po-|re|di- xit|Ie- sus|dis- *|ci- pu *|* * lis su-|
w: |||||||||||||
 G2 FE F4 | G4 z2 D2- | D2 D2 D2 D2 | G4 E2 C2 | G4 F2 E2- | ED/C/ D2 E3 D | CB, C3 B,/A,/ B,2 | %20
w: |is: No-|* li- te ti-|me- re pu-|sil- * *|* * * lus ~~grex, *||
w: |||||||
 C4 D4 | A,4 z4 | z4 G,4- | G,4 G,4 | G,4 E4- | E2 E2 E4 | D8 | E4 F4- | F4 D4- | D2 E4 E2 | %30
w: |||||* cu- it|pa-|tri ve-|* stro|* da- re|
w: ||qui~-|* a|com- pla-||||||
 A4 G4 | F3 G A2 F2 | G4 z2 G2- | G2 G2 G2 E2 | G2 A2 AGFE | D2 G3 F/E/ F2 | G4 E4 | z8 | %38
w: vo- bis|reg- * * *|num, ven-|* di- te, quae|pos- * si- * * *||\-de- tis||
w: ||||||||
 z4 z2 B,2 | D4 E2 G2- | GFED E2 C2 | D2 F3 E E2- | E2 D2 E4 | z2 E2 E4 | E2 C2 D2 F2- | FE E4 D2 | %46
w: et|da- te e|* * * * le- *|mo * * *|* sy- nam,|et da-|te e- le- mo-|* * * sy-|
w: ||||||||
 E4 z4 | z8 | z2 B,3 B, B,2 | A,2 G,2 B,3 C | D2 G,3 A,/B,/ C2 | B,2 A,B, CDEC | D4 E3 F | %53
w: ~nam.||Fa- ci- te|vo- ~bis sa- *|||* * cu-|
w: |||||||
 G2 G,4 C2 | A,3 B, C3 D | E2 F2 G4 | C2 E3 F G2 | A4 D4- | D8 | z8 | z8 | z8 | z8 | z8 | %64
w: los, qui non|ve- te- res *|||* cunt.|||||||
w: |||||||||||
 z2 C2 F4 | F4 F2 F2- | F2 D2 E2 F2 | G4 E2 F2 | D4 C4 | z4 C4 | D2 D2 G2 G2- | G2 G2 D4 | %72
w: The- sau-|rus non de-|* fi- ci- et|vo- bis in|cae- ~lis,|quem|fur non ap- pro-|* pri- at|
w: ||||||||
 G4 F2 E2- | ED C3 B,A,G, | A,2 B,2 C4 | B,8 | z8 | z8 | z8 | C8 | C4 B,4 | D4 D4 | E4 D4 | %83
w: ne- que ti|||~\-pit.||||U-|bi e-|nim est|the- sau-|
w: |* * * * * ne-|a cor- rum-|||||||||
 E3 F GA G2- | G2 FE G2 F2 | G8 | z2 C4 D2 | E2 F2 D2 C2 | D3 E F2 D2- | D2 CB, A,4 | G,4 z2 B,2- | %91
w: rus, * * * *|* * * tu- *|us,|i~- bi|et cor tu- am|||~ i~-|
w: |||||e- * * *||~~rit, *|
 B,2 C2 D2 E2 | C2 B,2 E3 D | EF G4 F2 | G2 E2 FEDC | B,4 z2 D2- | D2 D2 E2 F2 | G4 F2 E2- | %98
w: * bi et cor|tu- am e~- *|||~~rit, i~-|* bi et cor|tu- am e-|
w: |||||||
 EDCB, A,2 D2- | D2 C2 D2 C2- | C2 A,2 D3 C | D2 E2 D4- | D2 C2 E4 | D8- | D8 |] %105
w: |||||~rit.||
w: |||||||
V:3
 z4 c4- | c4 A4 | G4 c4 | c2 c4 BA | B3 A B2 c2- | cB G2 A3 G | AB c4 B2 | c8 | B6 B2 | B4 c4 | %10
w: In|* il-|lo tem-|po * * *||||re|di- xit|Ie- sus|
 d4 c3 d | e2 f2 d4 | c3 d e2 d2- | d2 cB c3 d | e2 d3 cBA | G2 g4 fe | d4 z4 | z4 z2 A2- | %18
w: dis- ci- *|pu- lis su-|||||~is:|No-|
 A2 A2 B2 c2 | e4 d2 e2- | edef g2 e2 | f2 e4 d2 | e4 B4- | B4 B4 | B4 c4- | c2 c2 c4 | B8 | %27
w: * li- te ti-|me- re pu-||* sil- lus|grex, qui-|* a|com- pla-|* cu- it|pa-|
 B4 c4- | c4 B2 c2- | c2 B2 c2 e2 | f4 d3 c | de f3 e ed/c/ | d4 c4- | c8- | c4 z4 | z2 c4 d2 | %36
w: tri ve-|* stro da-|* re vo- bis|reg- * *||* ~num,|||ven- di-|
 e4 g4 | e2 c2 d2 e2 | c4 d4 | B4 z4 | z8 | z2 c2 c4- | c2 A2 B2 c2 | c2 BA G2 A2 | G4 G2 c2- | %45
w: \-te, quae|pos- si- de *||tis||et da-|* \-te e- le-|mo * * * sy-|nam, et da-|
 c2 c2 z4 | z2 e2 d2 c2- | cBAG A2 A2 | G8 | z8 | z8 | z8 | z4 z2 c2- | cc c2 B2 A2 | %54
w: * te|e- le- mo-|* * * * * sy-|nam.||||Fa-|* ci- te vo- bis|
 c2- cd ef e2- | e2 dc d2 e2- | e2 A2 A2 d2- | d2 c2 B4 | A4 z2 G2 | c4 c2 c2- | c2 c2 c2 c2 | %61
w: sa * * * * *|* ~cu~~- * los, qui|* non ve- te-|* * res-|cunt. The-|sau- rus ~non|* de- fi- ci-|
 A4 c4 | B2 d3 c c2- | c2 B2 c3 B | A2 G2 F4 | z8 | z8 | z8 | z4 c4 | e2 g4 g2 | g2 g2 e2 e2- | %71
w: et vo-|bis in * cae-||* * ~~lis,||||quem|fur non ap-|pro- pri- at ne-|
 e2 d2 g3 f | e2 d2 c3 B | A4 z4 | z4 z2 G2- | G2 B2 d4 | d2 d2 B2 c2- | cBAG A4 | B4 G4- | G4 G4 | %80
w: * que ti- ne-|a cor- rum- *|~pit,|ne-|* que ti-|ne- a cor- rum-||pit. U-|* bi|
 G8 | A4 B4 | c4 G4 | c4 d2 e2- | edcB c4 | d2 G2 d4 | e3 d c2 B2 | A4 z4 | z8 | z8 | z2 d4 d2 | %91
w: e-|nim est|the- sau-|rus tu- *||us, the- sau-|* * rus tu-|~us,|||i~- bi|
 e2 f2 g4 | f2 e3 dcB | A2 d4 c2 | d2 cB c2 d2- | dc B2 A4 | G2 B4 c2 | d2 e2 c2 B2 | e3 d ef g2- | %99
w: et cor tu-|am e- * * *||||~rit, i~- bi|et cor tu- am|e- * * * *|
 g2 f2 g2 e2 | fedc B2 A2 | B2 c2 A4 | G4 c4- | c2 BA B3 c | B8 |] %105
w: |||||~rit.|
V:4
 z8 | z8 | z8 | z4 G,4- | G,4 E,4 | C,4 F,4 | F,E,D,C, D,2 D,2 | C,8 | G,6 G,2 | G,4 F,4 | %10
w: |||In|* il-|lo tem-|* * * * * po-|re|di- xit|Ie- sus|
 D,4 A,4- | A,2 F,2 G,4 | A,2 C3 B, G,2 | A,8 | G,8 | z2 G,4 G,2 | G,2 G,2 C4 | B,2 G,2 A,4 | %18
w: dis- ci-|* pu- lis|su- * * *||is:|No- li-|te ti- me-|re pu- sil-|
 F,4 E,2 C,2- | C,D,E,F, G,4 | %20
w: \-lus ~grex, *||
"^© Michael Wendel 2005\nThis edition may be freely duplicated, distributed, performed or recorded for non-profit performance or use.\n" A,4 G,4 | %21
w: |
 z8 | z4 E,4- | E,4 E,4 | E,4 C,4- | C,2 C,2 C,4 | G,8 | G,4 F,4- | F,4 G,4 | G,4 A,4 | F,4 G,4 | %31
w: |qui-|* a|com- pla-|* cu- it|pa-|tri ve-|* stro|da- re|vo- bis|
 D,3 E, F,G, A,2 | G,4 C,4- | C,4 z4 | z8 | z8 | z2 C4 C2 | C2 A,2 B,2 C2 | A,4 G,4 | z2 G,2 C4- | %40
w: reg- * * * *|* ~num,||||ven- di-|te, quae pos- si-|de- tis|et da-|
 C2 C2 C4 | B,2 A,3 G,F,E, | F,2 F,2 E,4 | C,8- | C,4 z2 F,2- | F,2 A,4 B,2 | C4 B,2 A,2- | %47
w: * te e-|le- mo- * * *|* * sy-|~nam,|* et|* da- te|e- le- mo-|
 A,G,F,E, F,2 F,2 | E,8 | z2 E,3 E, E,2 | D,2 C,2 E,3 F, | G,2 A,3 B, C2- | CB,/A,/ B,2 C4 | %53
w: * * * * * sy-|nam.|Fa- ci- te|vo- bis sa- *|* * * cu-|* * * * los,|
 C,3 D, E,2 F,2- | F,G, A,3 B, C2- | C2 B,A, G,2 G,2 | A,2 C4 B,2 | A,3 G,/F,/ G,4 | D,4 G,4 | %59
w: qui * * non||* * * * ve-|te- res- *||* cunt.|
 z2 C,2 F,4 | F,4 F,2 F,2- | F,2 D,2 E,2 F,2 | G,4 E,2 F,2 | D,4 C,4- | C,4 z4 | z8 | z8 | z8 | %68
w: The- sau-|rus non de-|* fi- ci- et|vo- bis in|cae- lis,|||||
 G,4 A,2 C2- | C2 C2 C2 C2 | G,4 C,4 | E,2 G,4 G,2 | G,2 G,2 A,3 B, | C2 A,3 G,F,E, | %74
w: quem fur non|* ap- pro- pri-|at ne-|que ti- ne-|a cor- rum *||
 F,2 G,2 C,2 C,2 | G,4 G,4 | G,2 G,2 G,2 A,2- | A,G,F,E, F,4 | E,8 | C,8 | C,4 E,4 | D,4 G,4 | %82
w: * * ~pit, ne-|\-que ti-|ne- a cor- rum-||pit.|U-|bi e-|nim est|
 C,2 C4 B,2 | A,4 G,4 | A,8 | G,8 | C,4 z4 | z8 | z8 | z8 | z4 z2 G,2- | G,2 A,2 B,2 C2 | %92
w: the- sau *|* rus|tu-||~us,||||i~-|* bi et cor|
 A,2 G,2 C4- | C2 B,2 A,4 | G,2 A,2 F,4 | G,4 D,4 | z2 G,4 A,2 | B,2 C2 A,2 G,2 | C6 B,2 | %99
w: tu- am e~-|||* ~rit,|i~- bi|et cor tu- am|e- *|
 A,4 G,2 A,2 | F,4 G,2 D,2 | G,2 C,2 D,4 | B,,2 C,3 D,E,F, | G,8- | G,8 |] %105
w: ||||rit.||

